X: 31
T: Har ha shi
%%abc-version 2.0
%%abcx-abcm2ps-target-version 5.9.1 (29 Sep 2008)
%%abc-creator hum2abc beta
%%abcx-conversion-date 2013/10/02 07:44:27
%%abc-edited-by Helmut Schaffrath
%%humdrum-veritas 1813942492
%%humdrum-veritas-data 922926902
%%continueall 1
%%barnumbers 0
L: 1/8
M: 3/4
K: D
(3:2:8D2 F E F E D F G [I:setbarnb 1]| 
A6 | 
[M:2/4]A Ae2- | 
e4 | 
[M:3/4]d2d2B2 | 
d c (3B A B | 
F4E2 | 
D G FG3 | 
G A Bd3 | 
F E FE3 | 
D6 | 
D2<B2-B2 | 
A2<d2-d2 | 
[M:2/4]A =cB2 | 
A B (3F E D | 
D4 | 
[M:3/4]D E FG3 | 
G A Bd3 | 
(3F E FE3D | 
D6 |]  



